SVG_Azure_All/Cognitive Services OCR.svg

<?xml version="1.0" encoding="UTF-8" standalone="no"?>
<!-- Generated by Microsoft Visio, SVG Export Cognitive Services OCR.svg Page-1 -->

<svg
   xmlns:dc="http://purl.org/dc/elements/1.1/"
   xmlns:cc="http://creativecommons.org/ns#"
   xmlns:rdf="http://www.w3.org/1999/02/22-rdf-syntax-ns#"
   xmlns:svg="http://www.w3.org/2000/svg"
   xmlns="http://www.w3.org/2000/svg"
   xmlns:sodipodi="http://sodipodi.sourceforge.net/DTD/sodipodi-0.dtd"
   xmlns:inkscape="http://www.inkscape.org/namespaces/inkscape"
   width="0.70866877in"
   height="0.78735912in"
   viewBox="0 0 51.024094 56.689997"
   xml:space="preserve"
   class="st5"
   version="1.1"
   id="svg59"
   sodipodi:docname="Cognitive Services OCR.svg"
   style="font-size:12px;overflow:visible;color-interpolation-filters:sRGB;fill:none;fill-rule:evenodd;stroke-linecap:square;stroke-miterlimit:3"
   inkscape:version="0.92.5 (2060ec1f9f, 2020-04-08)"><metadata
   id="metadata65"><rdf:RDF><cc:Work
       rdf:about=""><dc:format>image/svg+xml</dc:format><dc:type
         rdf:resource="http://purl.org/dc/dcmitype/StillImage" /></cc:Work></rdf:RDF></metadata><defs
   id="defs63" /><sodipodi:namedview
   pagecolor="#ffffff"
   bordercolor="#666666"
   borderopacity="1"
   objecttolerance="10"
   gridtolerance="10"
   guidetolerance="10"
   inkscape:pageopacity="0"
   inkscape:pageshadow="2"
   inkscape:window-width="640"
   inkscape:window-height="480"
   id="namedview61"
   showgrid="false"
   inkscape:zoom="1.8365233"
   inkscape:cx="34.015635"
   inkscape:cy="18.900351"
   inkscape:window-x="0"
   inkscape:window-y="0"
   inkscape:window-maximized="0"
   inkscape:current-layer="svg59" />
	<style
   type="text/css"
   id="style2">
	<![CDATA[
		.st1 {fill:#389cd6;stroke:none;stroke-linecap:butt;stroke-width:5}
		.st2 {fill:#389cd6;stroke:none;stroke-linecap:butt;stroke-width:4.99991}
		.st3 {fill:#389cd6;stroke:none;stroke-linecap:butt;stroke-width:4.99997}
		.st4 {fill:#389cd6;stroke:none;stroke-linecap:butt;stroke-width:4.99992}
		.st5 {fill:none;fill-rule:evenodd;font-size:12px;overflow:visible;stroke-linecap:square;stroke-miterlimit:3}
	]]>
	</style>

	<g
   id="g57"
   transform="translate(-5.1024712,-5.6743)">
		<title
   id="title4">Page-1</title>
		<g
   id="group6376-1"
   transform="translate(5.10236,-34.0157)">
			<title
   id="title6">Cognitive Services OCR</title>
			<g
   id="group6377-2">
				<title
   id="title8">Sheet.6377</title>
				<g
   id="shape6378-3">
					<title
   id="title10">Sheet.6378</title>
					<path
   d="M 42.14,95.1 H 1.25 v -5.97 c 0.29,0.04 0.58,0.09 0.88,0.09 2.41,0 4.37,-2.01 4.37,-4.48 0,-2.47 -1.96,-4.56 -4.37,-4.56 -0.3,0 -0.59,0.04 -0.88,0.09 v -7.34 c 0.29,0.05 0.58,0.09 0.88,0.09 2.41,0 4.37,-2 4.37,-4.48 0,-2.47 -1.96,-4.47 -4.37,-4.47 -0.3,0 -0.59,0.04 -0.88,0.08 v -7.33 c 0.29,0.04 0.58,0.09 0.88,0.09 2.41,0 4.37,-2.01 4.37,-4.48 0,-2.47 -1.96,-4.52 -4.37,-4.52 -0.3,0 -0.59,0.04 -0.88,0.09 V 40.96 H 42.14 V 64.37 H 43.4 V 40.32 c 0,-0.34 -0.3,-0.63 -0.63,-0.63 H 0.63 C 0.29,39.69 0,39.98 0,40.32 v 8.53 c 0,0.21 0.13,0.43 0.29,0.55 0.17,0.13 0.42,0.13 0.59,0.05 0.41,-0.17 0.83,-0.26 1.25,-0.26 1.75,0 3.12,1.45 3.12,3.2 0,1.75 -1.41,3.19 -3.12,3.19 C 1.71,55.58 1.29,55.5 0.88,55.33 0.67,55.24 0.46,55.24 0.29,55.37 0.13,55.54 0,55.71 0,55.93 v 9.08 c 0,0.21 0.13,0.42 0.29,0.55 0.17,0.13 0.42,0.13 0.59,0.04 0.41,-0.17 0.83,-0.25 1.25,-0.25 1.75,0 3.12,1.45 3.12,3.19 0,1.75 -1.41,3.2 -3.12,3.2 -0.42,0 -0.84,-0.09 -1.25,-0.26 C 0.67,71.4 0.46,71.4 0.29,71.53 0.13,71.65 0,71.87 0,72.08 v 9.08 c 0,0.21 0.13,0.43 0.29,0.55 0.17,0.13 0.42,0.13 0.59,0.05 0.41,-0.17 0.83,-0.26 1.25,-0.26 1.75,0 3.12,1.45 3.12,3.2 0,1.75 -1.41,3.2 -3.12,3.2 C 1.71,87.9 1.29,87.81 0.88,87.64 0.67,87.55 0.46,87.55 0.29,87.68 0.13,87.81 0,87.98 0,88.24 v 7.5 c 0,0.34 0.29,0.64 0.63,0.64 h 42.14 c 0.33,0 0.63,-0.3 0.63,-0.64 V 83.72 h -1.26 z"
   class="st1"
   id="path12"
   inkscape:connector-curvature="0"
   style="fill:#389cd6;stroke:none;stroke-width:5;stroke-linecap:butt" />
				</g>
				<g
   id="shape6379-5"
   transform="translate(9.25428,-12.0206)">
					<title
   id="title15">Sheet.6379</title>
					<path
   d="M 41.14,96.38 H 0.63 C 0.29,96.38 0,96.08 0,95.74 V 76.39 c 0,-0.34 0.29,-0.64 0.63,-0.64 h 40.51 c 0.34,0 0.63,0.3 0.63,0.64 v 19.35 c 0,0.34 -0.29,0.64 -0.63,0.64 z M 1.25,95.1 H 40.52 V 77.03 H 1.25 Z"
   class="st1"
   id="path17"
   inkscape:connector-curvature="0"
   style="fill:#389cd6;stroke:none;stroke-width:5;stroke-linecap:butt" />
				</g>
				<g
   id="shape6380-7"
   transform="rotate(-30.2523,7.3683581,12.669171)">
					<title
   id="title20">Sheet.6380</title>
					<rect
   x="0"
   y="95.099197"
   width="8.7122097"
   height="1.27877"
   class="st2"
   id="rect22"
   style="fill:#389cd6;stroke:none;stroke-width:4.99990988;stroke-linecap:butt" />
				</g>
				<g
   id="shape6381-9"
   transform="translate(20.3428,-16.6669)">
					<title
   id="title25">Sheet.6381</title>
					<rect
   x="0"
   y="85.849297"
   width="1.25058"
   height="10.5287"
   class="st1"
   id="rect27"
   style="fill:#389cd6;stroke:none;stroke-width:5;stroke-linecap:butt" />
				</g>
				<g
   id="shape6382-11"
   transform="translate(16.9662,-26.5988)">
					<title
   id="title30">Sheet.6382</title>
					<rect
   x="0"
   y="95.099197"
   width="7.6702199"
   height="1.27879"
   class="st1"
   id="rect32"
   style="fill:#389cd6;stroke:none;stroke-width:5;stroke-linecap:butt" />
				</g>
				<g
   id="shape6383-13"
   transform="translate(38.7679,-16.7947)">
					<title
   id="title35">Sheet.6383</title>
					<rect
   x="0"
   y="85.849297"
   width="1.25058"
   height="10.5287"
   class="st1"
   id="rect37"
   style="fill:#389cd6;stroke:none;stroke-width:5;stroke-linecap:butt" />
				</g>
				<g
   id="shape6384-15"
   transform="translate(35.6832,-26.5988)">
					<title
   id="title40">Sheet.6384</title>
					<rect
   x="0"
   y="95.099197"
   width="7.6702199"
   height="1.27879"
   class="st1"
   id="rect42"
   style="fill:#389cd6;stroke:none;stroke-width:5;stroke-linecap:butt" />
				</g>
				<g
   id="shape6385-17"
   transform="rotate(-38.3529,-6.9289522,39.44823)">
					<title
   id="title45">Sheet.6385</title>
					<rect
   x="0"
   y="82.908096"
   width="1.2505701"
   height="13.4698"
   class="st3"
   id="rect47"
   style="fill:#389cd6;stroke:none;stroke-width:4.99996996;stroke-linecap:butt" />
				</g>
				<g
   id="shape6386-19"
   transform="rotate(-51.5004,-4.0248304,60.624208)">
					<title
   id="title50">Sheet.6386</title>
					<rect
   x="0"
   y="95.099197"
   width="13.1726"
   height="1.27877"
   class="st4"
   id="rect52"
   style="fill:#389cd6;stroke:none;stroke-width:4.99991989;stroke-linecap:butt" />
				</g>
			</g>
		</g>
	</g>
</svg>

<?xml version="1.0" encoding="UTF-8" standalone="no"?>
<!DOCTYPE svg PUBLIC "-//W3C//DTD SVG 1.1//EN" "http://www.w3.org/Graphics/SVG/1.1/DTD/svg11.dtd">
<!-- Generated by Microsoft Visio, SVG Export Cognitive Services OCR.svg Page-1 -->
<svg xmlns="http://www.w3.org/2000/svg" xmlns:xlink="http://www.w3.org/1999/xlink" xmlns:ev="http://www.w3.org/2001/xml-events"
		width="0.850394in" height="1.33858in" viewBox="0 0 61.2283 96.378" xml:space="preserve" color-interpolation-filters="sRGB"
		class="st5">
	<style type="text/css">
	<![CDATA[
		.st1 {fill:#389cd6;stroke:none;stroke-linecap:butt;stroke-width:5}
		.st2 {fill:#389cd6;stroke:none;stroke-linecap:butt;stroke-width:4.99991}
		.st3 {fill:#389cd6;stroke:none;stroke-linecap:butt;stroke-width:4.99997}
		.st4 {fill:#389cd6;stroke:none;stroke-linecap:butt;stroke-width:4.99992}
		.st5 {fill:none;fill-rule:evenodd;font-size:12px;overflow:visible;stroke-linecap:square;stroke-miterlimit:3}
	]]>
	</style>

	<g>
		<title>Page-1</title>
		<g id="group6208-1" transform="translate(5.10236,-34.0157)">
			<title>Cognitive Services OCR</title>
			<g id="group6209-2">
				<title>Sheet.6209</title>
				<g id="shape6210-3">
					<title>Sheet.6210</title>
					<path d="M42.14 95.1 L1.25 95.1 L1.25 89.13 C1.54 89.17 1.83 89.22 2.13 89.22 C4.54 89.22 6.5 87.21 6.5 84.74
								 C6.5 82.27 4.54 80.18 2.13 80.18 C1.83 80.18 1.54 80.22 1.25 80.27 L1.25 72.93 C1.54 72.98 1.83
								 73.02 2.13 73.02 C4.54 73.02 6.5 71.02 6.5 68.54 C6.5 66.07 4.54 64.07 2.13 64.07 C1.83 64.07 1.54
								 64.11 1.25 64.15 L1.25 56.82 C1.54 56.86 1.83 56.91 2.13 56.91 C4.54 56.91 6.5 54.9 6.5 52.43 C6.5
								 49.96 4.54 47.91 2.13 47.91 C1.83 47.91 1.54 47.95 1.25 48 L1.25 40.96 L42.14 40.96 L42.14 64.37
								 L43.4 64.37 L43.4 40.32 C43.4 39.98 43.1 39.69 42.77 39.69 L0.63 39.69 C0.29 39.69 0 39.98 0 40.32
								 L0 48.85 C0 49.06 0.13 49.28 0.29 49.4 C0.46 49.53 0.71 49.53 0.88 49.45 C1.29 49.28 1.71 49.19
								 2.13 49.19 C3.88 49.19 5.25 50.64 5.25 52.39 C5.25 54.14 3.84 55.58 2.13 55.58 C1.71 55.58 1.29
								 55.5 0.88 55.33 C0.67 55.24 0.46 55.24 0.29 55.37 C0.13 55.54 0 55.71 0 55.93 L0 65.01 C0 65.22
								 0.13 65.43 0.29 65.56 C0.46 65.69 0.71 65.69 0.88 65.6 C1.29 65.43 1.71 65.35 2.13 65.35 C3.88 65.35
								 5.25 66.8 5.25 68.54 C5.25 70.29 3.84 71.74 2.13 71.74 C1.71 71.74 1.29 71.65 0.88 71.48 C0.67 71.4
								 0.46 71.4 0.29 71.53 C0.13 71.65 0 71.87 0 72.08 L0 81.16 C0 81.37 0.13 81.59 0.29 81.71 C0.46 81.84
								 0.71 81.84 0.88 81.76 C1.29 81.59 1.71 81.5 2.13 81.5 C3.88 81.5 5.25 82.95 5.25 84.7 C5.25 86.45
								 3.84 87.9 2.13 87.9 C1.71 87.9 1.29 87.81 0.88 87.64 C0.67 87.55 0.46 87.55 0.29 87.68 C0.13 87.81
								 0 87.98 0 88.24 L0 95.74 C0 96.08 0.29 96.38 0.63 96.38 L42.77 96.38 C43.1 96.38 43.4 96.08 43.4
								 95.74 L43.4 83.72 L42.14 83.72 L42.14 95.1 Z" class="st1"/>
				</g>
				<g id="shape6211-5" transform="translate(9.25428,-12.0206)">
					<title>Sheet.6211</title>
					<path d="M41.14 96.38 L0.63 96.38 C0.29 96.38 0 96.08 0 95.74 L0 76.39 C0 76.05 0.29 75.75 0.63 75.75 L41.14
								 75.75 C41.48 75.75 41.77 76.05 41.77 76.39 L41.77 95.74 C41.77 96.08 41.48 96.38 41.14 96.38 ZM1.25
								 95.1 L40.52 95.1 L40.52 77.03 L1.25 77.03 L1.25 95.1 Z" class="st1"/>
				</g>
				<g id="shape6212-7" transform="translate(-5.37938,5.43759) rotate(-30.2523)">
					<title>Sheet.6212</title>
					<rect x="0" y="95.0992" width="8.71221" height="1.27877" class="st2"/>
				</g>
				<g id="shape6213-9" transform="translate(20.3428,-16.6669)">
					<title>Sheet.6213</title>
					<rect x="0" y="85.8493" width="1.25058" height="10.5287" class="st1"/>
				</g>
				<g id="shape6214-11" transform="translate(16.9662,-26.5988)">
					<title>Sheet.6214</title>
					<rect x="0" y="95.0992" width="7.67022" height="1.27879" class="st1"/>
				</g>
				<g id="shape6215-13" transform="translate(38.7679,-16.7947)">
					<title>Sheet.6215</title>
					<rect x="0" y="85.8493" width="1.25058" height="10.5287" class="st1"/>
				</g>
				<g id="shape6216-15" transform="translate(35.6832,-26.5988)">
					<title>Sheet.6216</title>
					<rect x="0" y="95.0992" width="7.67022" height="1.27879" class="st1"/>
				</g>
				<g id="shape6217-17" transform="translate(-25.973,4.21334) rotate(-38.3529)">
					<title>Sheet.6217</title>
					<rect x="0" y="82.9081" width="1.25057" height="13.4698" class="st3"/>
				</g>
				<g id="shape6218-19" transform="translate(-48.9646,19.7352) rotate(-51.5004)">
					<title>Sheet.6218</title>
					<rect x="0" y="95.0992" width="13.1726" height="1.27877" class="st4"/>
				</g>
			</g>
		</g>
	</g>
</svg>
